X: 2
T: Up In The Air
R: jig
M: 6/8
L: 1/8
K: Bmin
FBB FBB |cBc AFE | FBB FBB | cBA B2A |
FBB FBB | c3 ABc |  dcd fed | cBA B2A :|
|: dcd ede | fdB BAF | dcd ede | fdB BAc |
d3 ede | f3 f2e | fgf f2e | dBB B2A :||


Tune 894	Setting 894

